X: 24291
T: Lost In The Loop
R: reel
M: 4/4
K: Gmajor
|:GABc AEE2|Bcde cAA2|defg agfg|eAgA edcB|
GABc AEE2|Bcde cAA^c|defg a2dc|1 AEGA cA A/A/A:|2 AEGA cAAe||
|:eAA2 fdd2|eAAc BGGA|eAA2 edcB|GABc AEE2|
eAA2 fdd2|eAAc BGG2|defg a2dc|AEGA cAAG||
|:A2A2 DEE2|A3G EDEG|ADDA DDAD|GABc AEE2|
A2A2 DEE2|A3G EDEG|eAA2 defg|eAA2 AEGA:|

